!!!!SEGMENT: pl-sa--553-a-ix-33--005_grose-michael-ehregott--rondo.krn
!!!cenid: 18xx:562
!!!COM: Grose, Michael Ehregott
!!!COM-rismid: pe30013323
!!!CDT: 1747-1795/09/24
!!!CNT: Danish
!!!OTL: Rondo
!!!PDT:
!!!AGN: Secular; Rondo
!!!SMS-siglum: PL-SA
!!!SMS-shelfmark: 553/A IX 33
!!!SMS-shelfwork: 005 W
!!!SMS-variant:
!!!SMS-altvar:
!!!NIFC-rismid: 1001112140
!!!URL-scan: http://bc.bdsandomierz.pl/dlibra/publication/1309/edition/1277/content
!!!ONB-nifc: Str. 13 (s. 4) – str. 15
!!!AIN: 2 piano
!!!key:
**kern	**dynam	**kern	**dynam
*part2	*part2	*part1	*part1
*staff2	*	*staff1	*
*Ipiano	*	*Ipiano	*
*I"Piano	*	*I"Piano	*
*I'pf	*	*I'pf	*
*clefG2	*	*clefG2	*
*k[]	*	*k[]	*
*C:	*	*C:	*
*M2/4	*	*M2/4	*
*>[A,B,B,C,C,D,E,E,F]	*	*>[A,B,B,C,C,D,E,E,F]	*
=1	=1	=1	=1
*>A	*	*>A	*
*	*	*2\right	*
16c/LL	.	8gg\L	.
16g/	.	.	.
16e/	.	8gg\J	.
16g/JJ	.	.	.
*rep	*	*	*
16c/LL	.	(>16ccc\LL	.
16g/	.	16bb\	.
16e/	.	16aa\	.
16g/JJ	.	16gg\JJ)	.
*Xrep	*	*	*
=2	=2	=2	=2
16d/LL	.	(>16gg\LL	.
16g/	.	16ff\	.
16f/	.	16ee\	.
16g/JJ	.	16ff\JJ)	.
16B/LL	.	4dd\	.
16g/	.	.	.
16d/	.	.	.
16g/JJ	.	.	.
=3	=3	=3	=3
*clefF4	*	*	*
8c\L	.	16ff\LL	.
.	.	16ee\	.
8E\J	.	(>16dd\	.
.	.	16cc\JJ)	.
8F\L	.	(>16b\LL	.
.	.	16a\	.
8D\J	.	16ff\)	.
.	.	16dd\JJ	.
=4	=4	=4	=4
8G\	.	(>4ccM\	.
*clefG2	*	*	*
8g/	.	.	.
16g/LL	.	8b\)	.
16f/	.	.	.
16e/	.	8r	.
16d/JJ	.	.	.
=5	=5	=5	=5
16c/LL	.	8gg\L	.
16g/	.	.	.
16e/	.	8gg\J	.
16g/JJ	.	.	.
*rep	*	*	*
16c/LL	.	16ccc\LL	.
16g/	.	(>16bb\	.
16e/	.	16aa\	.
16g/JJ	.	16gg\JJ)	.
=6	=6	=6	=6
16d/LL	.	16gg\LL	.
16g/	.	(>16ff\	.
16f/	.	16ee\	.
16g/JJ	.	16ff\JJ)	.
16B/LL	.	8.dd\L	.
16g/	.	.	.
16d/	.	.	.
16g/JJ	.	16ff\Jk	.
=7	=7	=7	=7
*clefF4	*	*	*
8c\L	.	16ff\LL	.
.	.	16ee\	.
8F\J	.	16ff\	.
.	.	16dd\JJ	.
!LO:TX:a:t=P:problem=mixed beam	!	!	!
8G\L	.	16ddLL 16f/	.
.	.	(<16cc 16e/	.
8GG/J	.	16cc 16e/)	.
.	.	16bJJ 16d/	.
=8	=8	=8	=8
8C/L	.	(<4b 4d/	.
8GG/J	.	.	.
4CC/	.	4cc 4e/)	.
=9	=9	=9	=9
4B\	.	8.gg\L	.
.	.	16dd\Jk	.
4c\	.	16ff\LL	.
.	.	16ee\	.
.	.	16dd\	.
.	.	16cc\JJ	.
!!LO:LB:g=original
=10	=10	=10	=10
*clefG2	*	*	*
8.g/L	.	4b\	.
!LO:SIC:s=16d	!	!	!
16c/Jk	.	.	.
16f/LL	.	4cc\	.
16e/	.	.	.
16d/	.	.	.
16c/JJ	.	.	.
=11	=11	=11	=11
4B/	.	8.gg\L	.
.	.	16dd\Jk	.
4c/	.	16ff\LL	.
.	.	16ee\	.
.	.	16dd\	.
.	.	16cc\JJ	.
=12	=12	=12	=12
4G/	.	(>16ff#X\LL	.
.	.	16gg\	.
.	.	16ff#\	.
.	.	16gg\JJ)	.
16r	.	4g/	.
16f/LL	.	.	.
16e/	.	.	.
16d/JJ	.	.	.
=13	=13	=13	=13
!	!	!	!LO:DY:rj
!	!	!	!LO:DY:a
16c/LL	.	8gg\L	f
16g/	.	.	.
16e/	.	8gg\J	.
16g/JJ	.	.	.
*rep	*	*	*
16c/LL	.	16ccc\LL	.
16g/	.	16bb\	.
16e/	.	16aa\	.
16g/JJ	.	16gg\JJ	.
*Xrep	*	*	*
=14	=14	=14	=14
16d/LL	.	16gg\LL	.
16g/	.	16ffn\	.
16f/	.	16ee\	.
16g/JJ	.	16ff\JJ	.
16B/LL	.	8.dd\L	.
16g/	.	.	.
16d/	.	.	.
16g/JJ	.	16ff\Jk	.
=15	=15	=15	=15
*clefF4	*	*	*
8c\L	.	16ff\LL	.
.	.	16ee\	.
8F\J	.	16ff\	.
.	.	16dd\JJ	.
!LO:TX:a:t=P:problem=mixed beam	!	!	!
8G\L	.	16ddLL 16f/	.
.	.	16cc 16e/	.
8GG/J	.	16cc 16e/	.
.	.	16bJJ 16d/	.
=16	=16	=16	=16
8C/L	.	(<4b 4d/	.
8GG/J	.	.	.
4CC/	.	4cc 4e/)	.
=17	=17	=17	=17
*clefG2	*	*	*
16c/LL	.	8ee\L	.
16g/	.	.	.
16c/	.	8ee\J	.
16g/JJ	.	.	.
16B/LL	.	4dd\	.
16g/	.	.	.
16B/	.	.	.
16g/JJ	.	.	.
=18	=18	=18	=18
16d/LL	.	8ff\L	.
16g/	.	.	.
16d/	.	8ff\J	.
16g/JJ	.	.	.
16c/LL	.	4ee\	.
16g/	.	.	.
16c/	.	.	.
16g/JJ	.	.	.
=19	=19	=19	=19
8e/L	.	8gg\L	.
8e/J	.	16ccc\L	.
.	.	16gg\JJ	.
8d/L	.	16gg\LL	.
.	.	16ff\	.
8c/J	.	16ff\	.
.	.	16ee\JJ	.
=20	=20	=20	=20
8G/L	.	4ee 4cc\	.
8g/J	.	.	.
16g/LL	.	4dd 4b\	.
16f/	.	.	.
16e/	.	.	.
16d/JJ	.	.	.
=21	=21	=21	=21
*clefF4	*	*	*
8c\L	.	(>16ee\LL	.
.	.	16gg\)	.
8c\J	.	(>16ff#X\	.
.	.	16aa\JJ)	.
8B\L	.	(>16gg\LL	.
.	.	16bb\)	.
8G\J	.	16dd\|	.
.	.	16dd\JJ|	.
!!LO:PB:g=original
=22	=22	=22	=22
8c\L	.	16ee\LL	.
.	.	16gg\	.
8c\J	.	16ff#X\	.
.	.	16aa\JJ	.
8B\L	.	16gg\LL	.
.	.	16bb\	.
8G\J	.	16dd\|	.
.	.	16dd\JJ	.
=23	=23	=23	=23
8c\L	.	16ffn\LL	.
.	.	(>16ee\	.
8c\J	.	16dd\	.
.	.	16cc\JJ)	.
8c\L	.	16b\LL	.
.	.	16a\	.
8c#X\J	.	16ee\	.
.	.	16g\JJ	.
=24	=24	=24	=24
16r	.	4gM/	.
16d\LL	.	.	.
16c\	.	.	.
16d\JJ	.	.	.
16D\LL	.	8f#X/	.
16F#X\	.	.	.
16A\	.	8r	.
16d\JJ	.	.	.
=25!|:	=25!|:	=25!|:	=25!|:
*>B	*	*>B	*
4d 4F#X\	.	16r	.
.	.	16dd\LL	.
.	.	16a\	.
.	.	16cc\JJ	.
4d 4G\	.	16cc\LL	.
.	.	16b\	.
.	.	16a\	.
.	.	16g\JJ	.
=26	=26	=26	=26
!LO:SIC:s=4F#	!	!	!
4d 4F\	.	16r	.
.	.	16dd\LL	.
!	!	!LO:SIC:s=16ff#	!
.	.	16aa 16ff\	.
.	.	16cccJJ 16aa\	.
4d 4G\	.	16cccLL 16aa\	.
.	.	16bb\	.
!	!	!LO:SIC:s=16aa	!
.	.	16gg\	.
!	!	!LO:SIC:s=16gg	!
.	.	16ff\JJ	.
!!LO:LB:g=original
=27:|!|:	=27:|!|:	=27:|!|:	=27:|!|:
*>C	*	*>C	*
8c\L	.	16ee\LL	.
.	.	16gg\	.
8c\J	.	16ff#X\	.
.	.	16aa\JJ	.
8B\L	.	16gg\LL	.
.	.	16bb\	.
8B\J	.	16dd\	.
.	.	16dd\JJ	.
=28:|!	=28:|!	=28:|!	=28:|!
*>D	*	*>D	*
8c\L	.	16ffn\LL	.
.	.	16ee\	.
8c\J	.	16dd\	.
.	.	16cc\JJ	.
!LO:TX:a:t=P:problem=mixed beam	!	!	!
8d\L	.	16ccLL 16a\	.
.	.	16b 16g\	.
8D/J	.	16b 16g\	.
.	.	16aJJ 16f#X\	.
=29	=29	=29	=29
8r	.	2g;/	.
!LO:TX:a:t=P:problem=mixed beam	!	!	!
8G;\L	.	.	.
8GG/J	.	.	.
8r	.	.	.
=30	=30	=30	=30
*	*	*^	*
.	.	8qqgn/	.	.
.	.	8qqr	.	.
.	.	8.qqb\	.	.
.	.	16qqb\	.	.
.	.	4.qqdd\	.	.
.	.	8qqdd\	.	.
.	.	4.qqff\	.	.
.	.	8qqff\	.	.
.	.	4qqddd;\	.	.
.	.	4qqccc\	.	.
.	.	4qqbb\	.	.
.	.	4qqaa\	.	.
.	.	4qqgg\	.	.
.	.	4qqff#X\	.	.
.	.	4qqffn\	.	.
.	.	16qqff/LL	.	.
.	.	16qqgg/JJ	.	.
2ryy	.	2ffny\	2ryy	.
.	.	16qqee\LL	.	.
.	.	16qqff\JJ	.	.
*	*	*v	*v	*
!!LO:LB:g=original
=31-	=31	=31-	=31
16c/LL	.	8gg\L	.
16g/	.	.	.
16e/	.	8gg\J	.
16g/JJ	.	.	.
*rep	*	*	*
16c/LL	.	16ccc\LL	.
16g/	.	16bb\	.
16e/	.	16aa\	.
16g/JJ	.	16gg\JJ	.
*Xrep	*	*	*
=32	=32	=32	=32
16d/LL	.	16gg\LL	.
16g/	.	16ff\	.
16f/	.	16ee\	.
16g/JJ	.	16ff\JJ	.
16B/LL	.	4dd\	.
16g/	.	.	.
16d/	.	.	.
16g/JJ	.	.	.
=33	=33	=33	=33
*clefF4	*	*	*
8c\L	.	16ff\LL	.
.	.	16ee\	.
8E\J	.	16dd\	.
.	.	16cc\JJ	.
8F\L	.	16b\LL	.
.	.	16a\	.
8D\J	.	16ff\	.
.	.	16dd\JJ	.
=34	=34	=34	=34
8G\	.	(>4cc\	.
*clefG2	*	*	*
8g/	.	.	.
16g/LL	.	8b\)	.
16f/	.	.	.
16e/	.	8r	.
16d/JJ	.	.	.
=35	=35	=35	=35
16c/LL	.	8gg\L	.
16g/	.	.	.
16e/	.	8gg\J	.
16g/JJ	.	.	.
*rep	*	*	*
16c/LL	.	16ccc\LL	.
16g/	.	16bb\	.
16e/	.	16aa\	.
16g/JJ	.	16gg\JJ	.
*Xrep	*	*	*
=36	=36	=36	=36
16d/LL	.	(>16gg\LL	.
16g/	.	16ff\	.
16f/	.	16ee\)	.
16g/JJ	.	16ff\JJ	.
16B/LL	.	8.dd\L	.
16g/	.	.	.
16d/	.	.	.
16g/JJ	.	16ff\Jk	.
=37	=37	=37	=37
*clefF4	*	*	*
8c\L	.	16ff\LL	.
.	.	16ee\	.
8F\J	.	16ff\	.
.	.	16dd\JJ	.
!LO:TX:a:t=P:problem=mixed beam	!	!	!
8G\L	.	16ddLL 16f/	.
.	.	16cc 16e/	.
8GG/J	.	16cc 16e/	.
.	.	16bJJ 16d/	.
=38	=38	=38	=38
8C/L	.	(<4b 4d/	.
8GG/J	.	.	.
4CC/	.	4cc 4e/)	.
=39	=39	=39	=39
16A\LL	.	8.a\L	.
16e\	.	.	.
16c\	.	.	.
16e\JJ	.	(>32cc\LL	.
.	.	32b\JJJ)	.
*rep	*	*	*
16A\LL	.	8a\L	.
16e\	.	.	.
16c\	.	8a\J	.
16e\JJ	.	.	.
*Xrep	*	*	*
=40	=40	=40	=40
*rep	*	*	*
16A\LL	.	8aa\L|	.
16e\	.	.	.
16c\	.	8ee\|	.
16e\JJ	.	.	.
*Xrep	*	*	*
*rep	*	*	*
16A\LL	.	8cc\|	.
16e\	.	.	.
16c\	.	8a\J|	.
16e\JJ	.	.	.
*Xrep	*	*	*
=41	=41	=41	=41
16B\LL	.	8.g#X/L	.
16e\	.	.	.
16d\	.	.	.
16e\JJ	.	32b/LL	.
.	.	32a/JJJ	.
*rep	*	*	*
16B\LL	.	8g#X/L	.
16e\	.	.	.
16d\	.	8g#/J	.
16e\JJ	.	.	.
*Xrep	*	*	*
=42	=42	=42	=42
16G#X\LL	.	8bb\L	.
16e\	.	.	.
16B\	.	8gg#X\	.
16e\JJ	.	.	.
*rep	*	*	*
16G#\LL	.	8ee\	.
16e\	.	.	.
16B\	.	8dd\J	.
16e\JJ	.	.	.
*Xrep	*	*	*
=43!|:	=43!|:	=43!|:	=43!|:
!	!	!LO:TX:a:t=P:problem=w źródle brak repetycji zwrotnej	!
8A\L	.	16cc\LL	.
.	.	16ee\	.
8c\J	.	16aa\	.
.	.	16ee\JJ	.
8B\L	.	16dd\LL	.
.	.	16ee\	.
8G#X\J	.	16b\	.
.	.	16ee\JJ	.
!!LO:LB:g=original
=44	=44	=44	=44
8A\L	.	16cc\LL	.
.	.	16ee\	.
8A\J	.	16ff\	.
.	.	16ee\JJ	.
8F\L	.	16dd\LL	.
.	.	16cc\	.
8D\J	.	16b\	.
.	.	16a\JJ	.
=45	=45	=45	=45
16r	.	4aM/	.
(>16E\LL	.	.	.
16D#X\	.	.	.
16E\JJ)	.	.	.
8EE/	.	8g#X/	.
8r	.	8r	.
=46	=46	=46	=46
*clefG2	*	*	*
2g 2e 2A/	.	16.a\LL	.
.	.	32b\K	.
.	.	16.cc#X\	.
.	.	32dd\JJk	.
.	.	16.ee\LL	.
.	.	32ff\K	.
.	.	16.ggn\	.
.	.	32ee\JJk	.
=47	=47	=47	=47
8r	.	16dd\LL	.
.	.	16aa\	.
8f\L	.	16gg#X\	.
.	.	16aa\JJ	.
8g 8e\	.	16gg#\LL	.
.	.	16aa\	.
8fJ 8d\	.	16gg#\	.
.	.	16aa\JJ	.
=48	=48	=48	=48
2g 2e 2A/	.	16.a\LL	.
.	.	32b\K	.
.	.	16.cc#X\	.
.	.	32dd\JJk	.
.	.	16.ee\LL	.
.	.	32ff\K	.
.	.	16.gg\	.
.	.	32ee\JJk	.
=49	=49	=49	=49
8r	.	16ff\LL	.
.	.	16dd\	.
8f/	.	16cc#X\	.
.	.	16dd\JJ	.
8gL 8e\	.	16cc#\LL	.
.	.	(>16dd\	.
8fJ 8d\	.	16cc#\)	.
.	.	16dd\JJ	.
=50	=50	=50	=50
*clefF4	*	*	*
8A\L	.	16ccn\LL	.
.	.	16ee\	.
8c\J	.	16aa\	.
.	.	16ee\JJ	.
8B\L	.	16dd\LL	.
.	.	16ee\	.
8G#X\J	.	16b\	.
.	.	16ee\JJ	.
=51	=51	=51	=51
8A\L	.	16cc\LL	.
.	.	16ee\	.
8c\J	.	16aa\	.
.	.	16ee\JJ	.
8B\L	.	16dd\LL	.
.	.	16ee\	.
8G#X\J	.	16b\	.
.	.	16ee\JJ	.
=52	=52	=52	=52
8A\L	.	16cc\LL	.
.	.	16ee\	.
8D\J	.	16ff\	.
.	.	16dd\JJ	.
8E\L	.	16cc\LL	.
.	.	16b\	.
8E\J	.	16a\	.
.	.	16g#X\JJ	.
=53	=53	=53	=53
16r	.	[>2a;\	.
16A\LL	.	.	.
16E\	.	.	.
16C\JJ	.	.	.
4AA;/	.	.	.
=54-	=54	=54-	=54
2ryy	.	4a\]	.
.	.	4qqaa\	.
.	.	4qqgg#X\	.
.	.	4qqee\	.
.	.	2qqggn\	.
.	.	4qqff#X\	.
.	.	4qqdd\	.
!	!	!LO:TX:a:t=P:problem=w źródle łamanie systemu międy 2qqffn a 4qqee	!
.	.	2qqffn\	.
!!LO:LB:g=original
.	.	4ryy	.
.	.	(>4qqee\	.
.	.	4qqgg\)	.
.	.	(>4qqb\	.
.	.	4qqdd\)	.
.	.	4.qqccM\	.
.	.	8qqdd\	.
.	.	4.qqeem\	.
.	.	8qqff\	.
!!LO:LB:g=original
=55	=55	=55	=55
*clefG2	*	*	*
!LO:TX:a:t=P:problem=w źródle zmiana klucza na początku systemu, w połowie poprzedniego taktu	!	!	!
16c/LL	.	8gg\L	.
16g/	.	.	.
16e/	.	8gg\J	.
16g/JJ	.	.	.
*rep	*	*	*
16c/LL	.	16ccc\LL	.
16g/	.	16bb\	.
16e/	.	16aa\	.
16g/JJ	.	16gg\JJ	.
*Xrep	*	*	*
=56	=56	=56	=56
16d/LL	.	16gg\LL	.
16g/	.	16ff\	.
16f/	.	16ee\	.
16g/JJ	.	16ff\JJ	.
16B/LL	.	4dd\	.
16g/	.	.	.
16d/	.	.	.
16g/JJ	.	.	.
=57	=57	=57	=57
*clefF4	*	*	*
8c\L	.	16ff\LL	.
.	.	16ee\	.
8E\J	.	16dd\	.
.	.	16cc\JJ	.
8F\L	.	16b\LL	.
.	.	16a\	.
8D\J	.	16ff\	.
.	.	16dd\JJ	.
=58	=58	=58	=58
8G\	.	4cc\	.
*clefG2	*	*	*
8g/	.	.	.
16g/LL	.	8b\	.
16f/	.	.	.
16e/	.	8r	.
16d/JJ	.	.	.
=59	=59	=59	=59
16c/LL	.	8gg\L	.
16g/	.	.	.
16e/	.	8gg\J	.
16g/JJ	.	.	.
*rep	*	*	*
16c/LL	.	16ccc\LL	.
16g/	.	16bb\	.
16e/	.	16aa\	.
16g/JJ	.	16gg\JJ	.
*Xrep	*	*	*
=60	=60	=60	=60
16d/LL	.	16gg\LL	.
16g/	.	16ff\	.
16f/	.	16ee\	.
16g/JJ	.	16ff\JJ	.
16B/LL	.	8.dd\L	.
16g/	.	.	.
16d/	.	.	.
16g/JJ	.	16ff\Jk	.
=61	=61	=61	=61
*clefF4	*	*	*
8c\L	.	16ff\LL	.
.	.	16ee\	.
8F\J	.	16ff\	.
.	.	16dd\JJ	.
!LO:TX:a:t=P:problem=mixed beam	!	!	!
8G\L	.	16ddLL 16f/	.
.	.	16cc 16e/	.
8GG/J	.	16cc 16e/	.
.	.	16bJJ 16d/	.
=62	=62	=62	=62
8C/L	.	4b 4d/	.
8GG/J	.	.	.
4CC/	.	4cc 4e/	.
=63	=63	=63	=63
16F\LL	.	8.cc/L	.
16c\	.	.	.
16A\	.	.	.
16c\JJ	.	16a/Jk	.
*rep	*	*	*
16F\LL	.	8f/L	.
16c\	.	.	.
16A\	.	8f/J	.
16c\JJ	.	.	.
*Xrep	*	*	*
!!LO:LB:g=original
=64	=64	=64	=64
!LO:TX:a:t=P:problem=przy kluczu bemol B-	!	!	!
16F\LL	.	16.dd\LL	.
16d\	.	.	.
.	.	32ee\L	.
16B-X\	.	32gg\	.
.	.	32ff\	.
16d\JJ	.	32ee\	.
.	.	32dd\JJJ	.
.	.	8qqdd/	.
16F\LL	.	4cc\	.
16c\	.	.	.
16A\	.	.	.
16c\JJ	.	.	.
=65	=65	=65	=65
16F\LL	.	8.cc\L	.
16c\	.	.	.
16A\	.	.	.
16c\JJ	.	16a\Jk	.
*rep	*	*	*
16F\LL	.	8f/L	.
16c\	.	.	.
16A\	.	8f/J	.
16c\JJ	.	.	.
*Xrep	*	*	*
=66	=66	=66	=66
16E\LL	.	16.b-X\LL	.
16c\	.	.	.
.	.	32cc\L	.
16G\	.	(>32ee\	.
.	.	32dd\	.
16c\JJ	.	32cc\	.
.	.	32b-\JJJ)	.
.	.	8qqb-/	.
16F\LL	.	4a\	.
16c\	.	.	.
16A\	.	.	.
16c\JJ	.	.	.
=67	=67	=67	=67
!LO:SIC:s=4.B-	!LO:DY:a:t=p&colon;	!	!
4.B\	p	16dd\LL	.
.	.	16gg\	.
.	.	16bb-X\	.
.	.	16aa\JJ	.
.	.	(>16gg\LL	.
.	.	16ff\	.
8G\	.	16ee\)	.
.	.	16dd\JJ	.
=68	=68	=68	=68
4.A\	.	16cc\LL	.
.	.	16ff\	.
.	.	16aa\	.
.	.	16gg\JJ	.
.	.	(>16ff\LL	.
.	.	16ee\	.
8F\	.	16dd\	.
.	.	16cc\JJ)	.
=69	=69	=69	=69
8G\L	.	16cc\LL	.
.	.	16b-X\	.
8E\J	.	16a\	.
.	.	16b-\JJ	.
8F\L	.	(>16b-\LL	.
.	.	16a\	.
8F\J	.	16g\	.
.	.	16a\JJ)	.
=70	=70	=70	=70
16r	.	4a 4f/	.
16c\LL	.	.	.
16Bn\	.	.	.
16c\JJ	.	.	.
4C/	.	4g 4e/	.
=71!|:	=71!|:	=71!|:	=71!|:
*>E	*	*>E	*
4c 4E\	.	16r	.
.	.	16cc\LL	.
.	.	16g\	.
.	.	16b-X\JJ	.
4c 4F\	.	16b-/LL	.
.	.	16a/	.
.	.	16g/	.
.	.	16f/JJ	.
=72	=72	=72	=72
4c 4E\	.	16r	.
.	.	16cc\LL	.
.	.	16gg 16ee\	.
.	.	16bb-X\JJ	.
4c 4F\	.	16bb-\LL	.
.	.	16aa\	.
.	.	16gg\	.
.	.	16ff\JJ	.
=73:|!	=73:|!	=73:|!	=73:|!
*>F	*	*>F	*
4.B-X\	.	16dd\LL	.
.	.	16gg\	.
.	.	16bb-X\	.
.	.	16aa\JJ	.
.	.	16gg\LL	.
.	.	16ff\	.
8G\	.	16ee\	.
.	.	16dd\JJ	.
=74	=74	=74	=74
4.A\	.	16cc\LL	.
.	.	16ff\	.
.	.	16aa\	.
.	.	16gg\JJ	.
.	.	16ff\LL	.
.	.	16ee\	.
8F\	.	16dd\	.
.	.	16cc\JJ	.
!!LO:PB:g=original
=75	=75	=75	=75
8B-X\L	.	16cc#X\LL	.
.	.	16dd\	.
8G\J	.	16ccn\	.
.	.	16b-X\JJ	.
!LO:TX:a:t=P:problem=mixed beam	!	!	!
8c\L	.	16a/LL	.
.	.	16g/	.
8C/J	.	16f/	.
.	.	16e/JJ	.
=76	=76	=76	=76
16r	.	[>2f;/	.
16FF\LL	.	.	.
16AA\	.	.	.
16C\JJ	.	.	.
8F\;	.	.	.
8r	.	.	.
=77-	=77	=77-	=77
2ryy	.	4f/]	.
.	.	4qqg#X/	.
.	.	4qqa/	.
.	.	4qqcc#X\	.
.	.	4qqdd\	.
.	.	4qqff\	.
.	.	4qqgg#X\	.
.	.	4qqaa\	.
.	.	4ryy	.
.	.	4qqcc#X\	.
.	.	4qqdd\	.
.	.	4qqee\	.
.	.	4qqff\	.
.	.	4.qqa\	.
.	.	8qqdd\	.
.	.	(>12qqcc#\L	.
.	.	12qqb\	.
.	.	12qqcc#\J)	.
.	.	(>12qqcc#\L	.
.	.	12qqb\	.
.	.	12qqcc#\J)	.
.	.	(>16qqcc#\LL	.
.	.	16qqb\	.
.	.	16qqcc#\JJ)	.
.	.	(>16qqcc#\LL	.
.	.	16qqb\	.
.	.	16qqcc#\JJ)	.
.	.	2qqcc#;\	.
.	.	4qqb\	.
=78-	=78	=78	=78
*clefG2	*	*	*
16c/LL	.	8gg\L	.
16g/	.	.	.
16e/	.	8gg\J	.
16g/JJ	.	.	.
*rep	*	*	*
16c/LL	.	16ccc\LL	.
16g/	.	16bb\	.
16e/	.	16aa\	.
16g/JJ	.	16gg\JJ	.
*Xrep	*	*	*
=79	=79	=79	=79
16d/LL	.	16gg\LL	.
16g/	.	16ff\	.
16f/	.	16ee\	.
16g/JJ	.	16ff\JJ	.
16B/LL	.	4dd\	.
16g/	.	.	.
16d/	.	.	.
16g/JJ	.	.	.
=80	=80	=80	=80
*clefF4	*	*	*
8c\L	.	16ff\LL	.
.	.	16ee\	.
8E\J	.	16dd\	.
.	.	16cc\JJ	.
8F\L	.	16b\LL	.
.	.	16a\	.
8D\J	.	16ff\	.
.	.	16dd\JJ	.
=81	=81	=81	=81
8G\	.	(<4ccM\	.
*clefG2	*	*	*
8g/	.	.	.
16g/LL	.	8b\)	.
16f/	.	.	.
16e/	.	8r	.
16d/JJ	.	.	.
=82	=82	=82	=82
16c/LL	.	8gg\L	.
16g/	.	.	.
!LO:SIC:s=16e	!	!	!
16d/	.	8gg\J	.
16g/JJ	.	.	.
*rep	*	*	*
16c/LL	.	16ccc\LL	.
16g/	.	16bb\	.
!LO:SIC:s=16e	!	!	!
16d/	.	16aa\	.
16g/JJ	.	16gg\JJ	.
*Xrep	*	*	*
=83	=83	=83	=83
16d/LL	.	(>16gg\LL	.
16g/	.	16ff\	.
16f/	.	16ee\)	.
16g/JJ	.	16ff\JJ	.
16B/LL	.	8.dd\L	.
16g/	.	.	.
16d/	.	.	.
16g/JJ	.	16ff\Jk	.
!!LO:LB:g=original
=84	=84	=84	=84
*clefF4	*	*	*
8c\L	.	16ff\LL	.
.	.	16ee\	.
8F\J	.	16ff\	.
.	.	16dd\JJ	.
!LO:TX:a:t=P:problem=mixed beam	!	!	!
8G\L	.	16ddLL 16f/	.
.	.	16cc 16e/	.
8GG/J	.	16cc 16e/	.
.	.	16bJJ 16d/	.
=85	=85	=85	=85
8C/L	.	4b 4d/	.
8GG/J	.	.	.
4CC/	.	4cc 4e/	.
=86	=86	=86	=86
4B\	.	8.gg\L	.
.	.	16dd\Jk	.
4c\	.	16ff\LL	.
.	.	16ee\	.
.	.	16dd\	.
.	.	16cc\JJ	.
=87	=87	=87	=87
*clefG2	*	*	*
8.g/L	.	4b\	.
16d/Jk	.	.	.
16f/LL	.	4cc\	.
16e/	.	.	.
16d/	.	.	.
16c/JJ	.	.	.
=88	=88	=88	=88
4B/	.	8.gg\L	.
.	.	16dd\Jk	.
4c/	.	16ff\LL	.
.	.	16ee\	.
.	.	16dd\	.
.	.	16cc\JJ	.
=89	=89	=89	=89
4G/	.	(>16ff#X\LL	.
.	.	16gg\	.
.	.	16ff#\	.
.	.	16gg\JJ)	.
16r	.	4g/	.
16f/LL	.	.	.
16e/	.	.	.
16d/JJ	.	.	.
=90	=90	=90	=90
16c/LL	.	8gg\L	.
16g/	.	.	.
16e/	.	8gg\J	.
16g/JJ	.	.	.
*rep	*	*	*
16c/LL	.	16ccc\LL	.
16g/	.	16bb\	.
16e/	.	16aa\	.
16g/JJ	.	16gg\JJ	.
*Xrep	*	*	*
=91	=91	=91	=91
16d/LL	.	16gg\LL	.
16g/	.	16ffn\	.
16f/	.	16ee\	.
16g/JJ	.	16ff\JJ	.
!	!	!LO:N:vis=8	!
16B/LL	.	8.dd\L	.
16g/	.	.	.
16d/	.	.	.
16g/JJ	.	16ff\Jk	.
=92	=92	=92	=92
*clefF4	*	*	*
8c\L	.	16ff\LL	.
.	.	16ee\	.
8F\J	.	16ff\	.
.	.	16dd\JJ	.
!LO:TX:a:t=P:problem=mixed beam	!	!	!
8G\L	.	16ddLL 16f/	.
.	.	16cc 16e/	.
8GG/J	.	16cc 16e/	.
.	.	16bJJ 16d/	.
=93	=93	=93	=93
8C/L	.	(<4b 4d/	.
8GG/J	.	.	.
4CC/	.	4cc 4e/)	.
!LO:TX:a:t=P:||:problem=w źródle kreska taktowa 	!	!LO:TX:a:t=P:||:problem=w źródle kreska taktowa 	!
==;	==	==;	==
*-	*-	*-	*-
!!!system-decoration: s1,s2
!!!RDF**kern: > = above
!!!RDF**kern: < = below
!!!EED: Antoni Szymański
!!!EST: 2020-12-05
!!!ENC: Andrzej Borzym
!!!END: 2020-06-18
!!!RDF**kern: | = vertical stroke
